icons/1_Primary/Probit.svg

<svg width="1024" height="1024" fill="none" xmlns="http://www.w3.org/2000/svg"><g clip-path="url(#a)"><path d="M512 1024c282.77 0 512-229.23 512-512S794.77 0 512 0 0 229.23 0 512s229.23 512 512 512Z" fill="#8C72BD"/><path d="m566 399.2-43.73-25.51a29.333 29.333 0 0 0-26.38 0l-43.76 25.51c-9.37 5.55-9.54 14.58 0 20l43.73 25.8a28.291 28.291 0 0 0 26.38 0L566 419.15a10.546 10.546 0 0 0 6.61-13.4 10.428 10.428 0 0 0-6.61-6.55Zm170.59-31.58-211.4-121.49a29.333 29.333 0 0 0-26.38 0L287.44 367.61a29.69 29.69 0 0 0-9.287 9.905 29.692 29.692 0 0 0-3.903 13.005v243a29.692 29.692 0 0 0 3.903 13.005 29.69 29.69 0 0 0 9.287 9.905l211.37 121.44a29.333 29.333 0 0 0 26.38 0l211.37-121.48a29.69 29.69 0 0 0 9.287-9.905 29.692 29.692 0 0 0 3.903-13.005v-243a29.683 29.683 0 0 0-13.19-22.87l.03.01ZM642.5 424l-120.26 70.82a28.291 28.291 0 0 1-26.38 0L419.5 450c-9.37-5.73-17.35-1.21-17.35 9.72V595.3a10.936 10.936 0 0 1-.91 6.304 10.929 10.929 0 0 1-16.44 4.106l-13-6.77a28.115 28.115 0 0 1-13.54-22.56V429.22a29.692 29.692 0 0 1 3.903-13.005 29.69 29.69 0 0 1 9.287-9.905l124.26-72.19a29.333 29.333 0 0 1 26.38 0l120.26 69.42a10.59 10.59 0 0 1 .15 20.46Z" fill="#fff"/></g><defs><clipPath id="a"><path fill="#fff" d="M0 0h1024v1024H0z"/></clipPath></defs></svg>

<svg width="1024" height="1024" viewBox="0 0 1024 1024" fill="none" xmlns="http://www.w3.org/2000/svg">
<g clip-path="url(#clip0_2_3216)">
<path d="M512 1024C794.77 1024 1024 794.77 1024 512C1024 229.23 794.77 0 512 0C229.23 0 0 229.23 0 512C0 794.77 229.23 1024 512 1024Z" fill="#8C72BD"/>
<path d="M566 399.2L522.27 373.69C518.178 371.63 513.661 370.557 509.08 370.557C504.499 370.557 499.982 371.63 495.89 373.69L452.13 399.2C442.76 404.75 442.59 413.78 452.13 419.2L495.86 445C499.926 447.143 504.454 448.263 509.05 448.263C513.646 448.263 518.174 447.143 522.24 445L566 419.15C567.315 418.706 568.53 418.007 569.574 417.092C570.618 416.178 571.472 415.067 572.086 413.822C572.7 412.577 573.062 411.223 573.152 409.838C573.242 408.453 573.058 407.064 572.61 405.75C572.091 404.221 571.224 402.833 570.077 401.696C568.93 400.559 567.534 399.705 566 399.2ZM736.59 367.62L525.19 246.13C521.098 244.07 516.581 242.997 512 242.997C507.419 242.997 502.902 244.07 498.81 246.13L287.44 367.61C283.621 370.15 280.442 373.54 278.153 377.515C275.865 381.49 274.529 385.942 274.25 390.52V633.52C274.529 638.098 275.865 642.55 278.153 646.525C280.442 650.5 283.621 653.89 287.44 656.43L498.81 777.87C502.902 779.93 507.419 781.003 512 781.003C516.581 781.003 521.098 779.93 525.19 777.87L736.56 656.39C740.379 653.85 743.558 650.46 745.847 646.485C748.135 642.51 749.471 638.058 749.75 633.48V390.48C749.465 385.909 748.126 381.465 745.838 377.498C743.55 373.53 740.374 370.146 736.56 367.61L736.59 367.62ZM642.5 424L522.24 494.82C518.174 496.963 513.646 498.083 509.05 498.083C504.454 498.083 499.926 496.963 495.86 494.82L419.5 450C410.13 444.27 402.15 448.79 402.15 459.72V595.3C402.479 597.445 402.162 599.639 401.24 601.604C400.317 603.568 398.831 605.213 396.97 606.33C395.109 607.446 392.958 607.984 390.791 607.873C388.623 607.763 386.538 607.01 384.8 605.71L371.8 598.94C367.874 596.569 364.588 593.274 362.228 589.342C359.867 585.41 358.505 580.96 358.26 576.38V429.22C358.539 424.642 359.875 420.19 362.163 416.215C364.452 412.24 367.631 408.85 371.45 406.31L495.71 334.12C499.802 332.06 504.319 330.987 508.9 330.987C513.481 330.987 517.998 332.06 522.09 334.12L642.35 403.54C644.607 404.126 646.608 405.441 648.041 407.28C649.475 409.119 650.261 411.381 650.278 413.712C650.295 416.044 649.542 418.317 648.136 420.177C646.729 422.037 644.748 423.381 642.5 424Z" fill="white"/>
</g>
<defs>
<clipPath id="clip0_2_3216">
<rect width="1024" height="1024" fill="white"/>
</clipPath>
</defs>
</svg>
